!!!!SEGMENT: pl-kk--kk-i-24--003_anonim--missa-insignis-mater-sanctus.krn
!!!cenid: 17xx:2213
!!!COM: Anonim
!!!COM-rismID: pe30004985
!!!CDT:
!!!CNT:
!!!OPR: Missa Insignis Mater
!!!OTL: Sanctus
!!!OMV: 003
!!!PDT:
!!!AGN: Sacred; Mass
!!!SMS-siglum: PL-Kk
!!!SMS-shelfmark: Kk.I.24
!!!SMS-shelfwork: 001-003 M
!!!SMS-variant:
!!!SMS-altvar:
!!!NIFC-rismSourceID: 1001156018
!!!NIFC-islandoraID: pl-kk:15396
!!!URL-pdf-islandora: https://repozytorium.nifc.pl/islandora/object/pl-kk%3A15396/datastream/PDF/view
!!!URL-scan:
!!!ONB-nifc: UWAGA: części Mszy: 1. Kyrie, 2. Et in terra, 3. Sanctus, 4. Agnus Dei.
!!!AIN: 1 alto 2 empty 1 tenor 1 vox
!!!key:
**kern	**text	**kern	**text	**fba	**kern	**text	**kern	**text	**kern	**text
*part5	*part5	*part4	*part4	*part4	*part3	*part3	*part2	*part2	*part1	*part1
*staff5	*staff5	*staff4	*staff4	*staff4	*staff3	*staff3	*staff2	*staff2	*staff1	*staff1
*Iempty	*	*Iempty	*	*	*Itenor	*	*Ialto	*	*Ivox	*
*I"Baſso Ripieno	*	*I"Baſso.	*	*	*I"Tenore	*	*I"Alto.	*	*I"Canto.	*
*I'B rip	*	*I'B	*	*	*I'T	*	*I'A	*	*I'S	*
*clefF4	*	*clefF4	*	*	*clefC4	*	*clefC3	*	*clefC1	*
*k[b-]	*	*k[b-]	*	*	*k[b-]	*	*k[b-]	*	*k[b-]	*
*g:	*	*g:	*	*	*g:	*	*g:	*	*g:	*
*M3/2	*	*M3/2	*	*	*M3/2	*	*M3/2	*	*M3/2	*
=1	=1	=1	=1	=1	=1	=1	=1	=1	=1	=1
!LO:TX:t=P:problem=przy kluczu B- BB-	!	!LO:TX:t=P:problem=przy kluczu BB- B-	!	!	!	!	!	!	!	!
00.r	.	00.r	.	.	0.r	.	1.r	.	2g/	San-
*	*	*	*	*	*	*	*	*	*2\right	*
.	.	.	.	.	.	.	.	.	2b-\	.
.	.	.	.	.	.	.	.	.	2cc\	.
=2	=2	=2	=2	=2	=2	=2	=2	=2	=2	=2
*	*	*	*	*	*	*	*2\right	*	*	*
.	.	.	.	.	.	.	(2d\	San-	2dd\	.
.	.	.	.	.	.	.	2e\	.	2.cc\	.
.	.	.	.	.	.	.	2f#X\)	.	.	.
.	.	.	.	.	.	.	.	.	4dd\	.
=3	=3	=3	=3	=3	=3	=3	=3	=3	=3	=3
.	.	.	.	.	2G/	San-	2g\	.	2b-\	.
.	.	.	.	.	1A	.	2.f\	.	2.a\	.
.	.	.	.	.	.	.	4g\	.	4b-\	.
=4	=4	=4	=4	=4	=4	=4	=4	=4	=4	=4
.	.	.	.	.	1c	.	4en\	.	2.g\	.
.	.	.	.	.	.	.	4d\	.	.	.
.	.	.	.	.	.	.	4e\	.	.	.
.	.	.	.	.	.	.	4f\	.	4a\	.
.	.	.	.	.	2G/	.	4g\	.	4b-\	.
.	.	.	.	.	.	.	4e\	.	4g\	.
=5	=5	=5	=5	=5	=5	=5	=5	=5	=5	=5
*	*	*	*	*	*2\right	*	*	*	*	*
0.r	.	0.r	.	.	2d\	.	4f\	.	4a\	.
.	.	.	.	.	.	.	8e\L	.	4b-\	.
.	.	.	.	.	.	.	8d\J	.	.	.
.	.	.	.	.	4c\	.	4c/	.	1cc	.
.	.	.	.	.	4B-\	.	4B-/	.	.	.
.	.	.	.	.	2A\	.	2A/	.	.	.
=6	=6	=6	=6	=6	=6	=6	=6	=6	=6	=6
.	.	.	.	.	2G/	.	2G/	.	1b-	.
.	.	.	.	.	2.d\	.	2.d\	.	.	.
.	.	.	.	.	.	.	.	.	[<2a\	.
.	.	.	.	.	4c\	.	4c/	.	.	.
=7	=7	=7	=7	=7	=7	=7	=7	=7	=7	=7
2GG/	San-	2GG/	San-	.	1.d	-cus	1.B-	.	2a\]	.
2BB-/	.	2BB-/	.	.	.	.	.	.	2.g/	.
2C/	.	2C/	.	.	.	.	.	.	.	.
!	!	!	!	!	!	!	!	!	!LO:TX:t=P:global:problem=rozdzielacze słów na różnych wysokościach	!
.	.	.	.	.	.	.	.	.	4g,</	-ctus
=8	=8	=8	=8	=8	=8	=8	=8	=8	=8	=8
*2\right	*	*	*	*	*	*	*	*	*	*
2D\	.	2D/	.	.	2D/	San-	1.A	-ctus	4f/	San-
.	.	.	.	.	.	.	.	.	4g/	.
2C/	.	2C/	.	.	2E/	.	.	.	1a	.
2D/	.	2D/	.	.	2F/	.	.	.	.	.
=9	=9	=9	=9	=9	=9	=9	=9	=9	=9	=9
2GG/	.	2GG/	.	.	2G/	.	1d	San-	2b-\	.
1AA	.	1AA	.	.	2.F/	.	.	.	[<1a	.
.	.	.	.	.	.	.	2c#X/	.	.	.
.	.	.	.	.	4E/	.	.	.	.	.
=10	=10	=10	=10	=10	=10	=10	=10	=10	=10	=10
1.BB-	.	1.BB-X	.	.	2D/	.	1d	-ctus	1a]	.
.	.	.	.	.	2F/	.	.	.	.	.
.	.	.	.	.	2G/	.	4d\	San-	2g\	.
.	.	.	.	.	.	.	4e\	.	.	.
=11-	=11	=11	=11	=11	=11	=11	=11	=11	=11	=11
1.AA	-ctus,	1.AA,<	-ctus,	.	1A	.	4f\	.	2f/	.
.	.	.	.	.	.	.	4g\	.	.	.
.	.	.	.	.	.	.	4a\	.	1e	.
.	.	.	.	.	.	.	8g\L	.	.	.
.	.	.	.	.	.	.	8f\J	.	.	.
.	.	.	.	.	4A/	.	2e\	.	.	.
.	.	.	.	.	4G/	.	.	.	.	.
=12	=12	=12	=12	=12	=12	=12	=12	=12	=12	=12
*	*	*2\right	*	*	*	*	*	*	*	*
(2D\	San-	(2D\	San-	.	4F/	.	1.f	-ctus	1d	-ctus.
.	.	.	.	.	4D/	.	.	.	.	.
2F\	.	2F\	.	.	[<1d	.	.	.	.	.
2G\)	.	2G\)	.	.	.	.	.	.	2rc	.
!	!	!	!	!	!	!	!LO:LB:g=original	!	!LO:LB:g=original	!
=13	=13	=13	=13	=13	=13	=13	=13	=13	=13	=13
2A\	.	2A\	.	.	2d\]	.	2.e\	San-	1.r	.
2.E\	.	2.E\	.	.	1c	.	.	.	.	.
.	.	.	.	.	.	.	4f\	.	.	.
.	.	.	.	.	.	.	4g\	.	.	.
4F\	.	4F\	.	.	.	.	8f\L	.	.	.
.	.	.	.	.	.	.	8e\J	.	.	.
=14	=14	=14	=14	=14	=14	=14	=14	=14	=14	=14
2.G\	.	2.G\	.	.	2.B-\	.	2d\	.	2g\	San-
.	.	.	.	.	.	.	1g	.	2b-\	.
4F\	.	4F\	.	.	4A/	.	.	.	.	.
2E-X\	.	2E-X\	.	.	2G/	.	.	.	2cc\	.
!	!	!	!	!	!LO:LB:g=original	!	!	!	!	!
=15	=15	=15	=15	=15	=15	=15	=15	=15	=15	=15
2D/	.	2D/	.	.	2A\	.	2.f\	.	1dd	.
2BB-/	.	2BB-/	.	.	2B-\	.	.	.	.	.
.	.	.	.	.	.	.	4g\	.	.	.
2AA/	.	2AA/	.	.	2c\	.	2a\	.	2cc\	.
=16	=16	=16	=16	=16	=16	=16	=16	=16	=16	=16
4G\	.	4G\	.	.	2d\	.	2d\	.	1b-	.
4F\	.	4F\	.	.	.	.	.	.	.	.
!LO:TX:a:t=P:problem=♭ above	!	!	!	!	!	!	!	!	!	!
4E-X\	.	4E-X\	.	.	1e-X	.	(4g\	.	.	.
4D\	.	4D\	.	.	.	.	4f\	.	.	.
2C/	.	2C/	.	.	.	.	4e-X\	.	2cc\	.
.	.	.	.	.	.	.	4f\)	.	.	.
=17	=17	=17	=17	=17	=17	=17	=17	=17	=17	=17
2GG/	.	2GG/	.	.	2d\	.	1g	.	2b-\	.
2C/	.	2C/	.	.	4c\	.	.	.	1a	.
.	.	.	.	.	4B-\	.	.	.	.	.
2D/	.	2D/	.	.	2A/	.	2f#X\	.	.	.
=18	=18	=18	=18	=18	=18	=18	=18	=18	=18	=18
*custos:G	*	*custos:G	*	*	*	*	*	*	*	*
1.GG	-ctus.	1.GG,<	-ctus.	.	1.Bn	-ctus	1.g	-ctus	1.g	-ctus.
!LO:LB:g=original	!	!LO:LB:g=original	!	!	!	!	!	!	!	!
=19	=19	=19	=19	=19	=19	=19	=19	=19	=19	=19
2G\	Do-	2G\	Do-	.	2r	.	2r	.	00.r	.
4G\	-mi-	4G\	-mi-	.	2r	.	2r	.	.	.
4G\	-n(us)	4G,<\	-n(us)	.	.	.	.	.	.	.
4D\	De-	4D\	De-	.	2d\	Do-	2fn\	Do-	.	.
4E-X\	us	4E-X\	us	.	.	.	.	.	.	.
=20	=20	=20	=20	=20	=20	=20	=20	=20	=20	=20
2.F\	Sab-	2.F\	Sab-	.	4d\	-mi-	4f\	-mi-	.	.
.	.	.	.	.	4d,<\	-n(us)	4f\	-n(us)	.	.
.	.	.	.	.	4A\	De-	4c\	De-	.	.
8E-X\L	.	8E-X\L	.	.	4B-\	.	4d\	us	.	.
8D\J	.	8D\J	.	.	.	.	.	.	.	.
4C/	.	4C/	.	.	2c\	-us	[2e-X\	Sab-	.	.
4D/	.	4D/	.	.	.	.	.	.	.	.
=21	=21	=21	=21	=21	=21	=21	=21	=21	=21	=21
4E-X\	.	4E-X\	.	.	2.c\	Sab-	2e-\]	.	.	.
4F\	.	4F\	.	.	.	.	.	.	.	.
2.G\	.	2.G\	.	.	.	.	4e-y\	.	.	.
.	.	.	.	.	8B-\L	.	8d\L	.	.	.
.	.	.	.	.	8A\J	.	8c\J	.	.	.
.	.	.	.	.	[<2B-\	.	[<2d\	.	.	.
8F\L	.	8F\L	.	.	.	.	.	.	.	.
8E-\J	.	8E-\J	.	.	.	.	.	.	.	.
=22	=22	=22	=22	=22	=22	=22	=22	=22	=22	=22
!	!	!	!	!	!LO:N:xstem:cue	!	!	!	!	!
2.F\	.	2.F\	.	.	4B-\]	.	4d/]	.	.	.
.	.	.	.	.	8A/L	.	8c/L	.	.	.
.	.	.	.	.	8G/J	.	8B-/J	.	.	.
.	.	.	.	.	2.A/	.	2.c/	.	.	.
8E-X\L	.	8E-X\L	.	.	.	.	.	.	.	.
8D\J	.	8D\J	.	.	.	.	.	.	.	.
[<2E-\	.	[<2E-\	.	.	.	.	.	.	.	.
.	.	.	.	.	8G/L	.	8B-/L	.	.	.
*	*	*	*	*	*	*	*custos:B-	*	*	*
.	.	.	.	.	8F/J	.	8A/J	.	.	.
!	!	!	!	!	!	!	!LO:LB:g=original	!	!	!
=23	=23	=23	=23	=23	=23	=23	=23	=23	=23	=23
!LO:N:xstem:cue	!	!LO:N:xstem:cue	!	!	!	!	!	!	!	!
4E-\]	.	4E-\]	.	.	1G	.	4B-/	.	0.r	.
8D/L	.	8D/L	.	.	.	.	4c/	.	.	.
8C/J	.	8C/J	.	.	.	.	.	.	.	.
4BB-/	.	4BB-/	.	.	.	.	4d/	.	.	.
4C/	.	4C/	.	.	.	.	8c/L	.	.	.
.	.	.	.	.	.	.	8B-/J	.	.	.
2D\	.	2D/	.	.	2F#X/	.	2A/	.	.	.
=24	=24	=24	=24	=24	=24	=24	=24	=24	=24	=24
2E-X\	.	2E-X\	.	.	1G	.	2G/	.	.	.
2.D\	.	2.D\	.	.	.	.	2.A/	.	.	.
.	.	.	.	.	2F#X/	-ba-	.	.	.	.
4D\	-ba-	4D\	-ba-	.	.	.	4A/	-ba-	.	.
=25	=25	=25	=25	=25	=25	=25	=25	=25	=25	=25
1.GG	-oth.	1.GG	-oth.	.	1.G	-oth.	1.G	-oth.	2r	.
.	.	.	.	.	.	.	.	.	2r	.
.	.	.	.	.	.	.	.	.	2dd\	Do-
=26	=26	=26	=26	=26	=26	=26	=26	=26	=26	=26
00.r	.	00.r	.	.	2d\	Do-	00.r	.	4dd\	-mi-
.	.	.	.	.	.	.	.	.	4dd,<\	-n(us)
.	.	.	.	.	4d\	-mi-	.	.	4a\	De-
.	.	.	.	.	4d\	-n(us)	.	.	4b-,<\	-us
.	.	.	.	.	4A\	DE-	.	.	[<2cc\	Sab-
.	.	.	.	.	4B-\	-(us)	.	.	.	.
=27	=27	=27	=27	=27	=27	=27	=27	=27	=27	=27
!	!	!	!	!	!	!	!	!	!LO:N:xstem:cue	!
.	.	.	.	.	2.c\	Sab-	.	.	4cc\]	.
.	.	.	.	.	.	.	.	.	8b-\L	.
.	.	.	.	.	.	.	.	.	8a\J	.
.	.	.	.	.	.	.	.	.	4g\	.
.	.	.	.	.	8B-\L	.	.	.	4a\	.
.	.	.	.	.	8A\J	.	.	.	.	.
.	.	.	.	.	4G/	.	.	.	4b-\	.
.	.	.	.	.	4A/	.	.	.	4cc\	.
!	!	!	!	!	!LO:LB:g=original	!	!	!	!	!
=28	=28	=28	=28	=28	=28	=28	=28	=28	=28	=28
.	.	.	.	.	4B-\	.	.	.	2.dd\	.
.	.	.	.	.	4c\	.	.	.	.	.
.	.	.	.	.	2.d\	.	.	.	.	.
.	.	.	.	.	.	.	.	.	8cc\L	.
.	.	.	.	.	.	.	.	.	8b-\J	.
.	.	.	.	.	.	.	.	.	[<2a\	.
.	.	.	.	.	8c\L	.	.	.	.	.
.	.	.	.	.	8B-\J	.	.	.	.	.
=29	=29	=29	=29	=29	=29	=29	=29	=29	=29	=29
!	!	!	!	!	!	!	!	!	!LO:N:xstem:cue	!
.	.	.	.	.	2.c\	.	.	.	4a\]	.
.	.	.	.	.	.	.	.	.	8g/L	.
.	.	.	.	.	.	.	.	.	8f/J	.
.	.	.	.	.	.	.	.	.	2.g/	.
.	.	.	.	.	8B-\L	.	.	.	.	.
.	.	.	.	.	8A\J	.	.	.	.	.
.	.	.	.	.	[2B-\	.	.	.	.	.
.	.	.	.	.	.	.	.	.	8f/L	.
.	.	.	.	.	.	.	.	.	8e/J	.
=30	=30	=30	=30	=30	=30	=30	=30	=30	=30	=30
!	!	!	!	!	!LO:N:xstem:cue	!	!	!	!	!
0.r	.	0.r	.	.	4B-\]	.	0.r	.	1f	.
.	.	.	.	.	8A/L	.	.	.	.	.
.	.	.	.	.	8G/J	.	.	.	.	.
.	.	.	.	.	4F/	.	.	.	.	.
.	.	.	.	.	4G/	.	.	.	.	.
.	.	.	.	.	2A/	.	.	.	2e/	.
=31	=31	=31	=31	=31	=31	=31	=31	=31	=31	=31
.	.	.	.	.	2B-\	.	.	.	1d	.
.	.	.	.	.	2A\	.	.	.	.	.
*	*	*	*	*	*	*	*	*	*custos:d	*
.	.	.	.	.	2G/	.	.	.	2c#X/	-ba-
!	!	!	!	!	!	!	!	!	!LO:LB:g=original	!
=32	=32	=32	=32	=32	=32	=32	=32	=32	=32	=32
2D/	Do-	2D/	Do-	.	1A	.	2f\	Do-	1.d	-oth.
4D/	-mi-	4D/	-mi-	.	.	.	4f\	-mi-	.	.
4D,</	-n(us)	4D/	-n(us)	.	.	.	4f\	-n(us)	.	.
4AA/	DE-	4AA/	DE-	.	2A/	-ba-	4c\	DE-	.	.
4BB-,</	-(us)	4BB-/	-(us)	.	.	.	4d\	-(us)	.	.
=33	=33	=33	=33	=33	=33	=33	=33	=33	=33	=33
*	*ij	*	*ij	*	*	*	*	*	*	*
2C/	Do-	2C/	Do-	.	4A,</	-oth	1e	Sab-	2cc\	Do-
.	.	.	.	.	4A/	Do-	.	.	.	.
4C/	-mi-	4C/	-mi-	.	4E/	.	.	.	2g\	-mi-
4C,</	-nus	4C/	-nus	.	4F/	-mi-	.	.	.	.
4GG/	DE-	4GG/	DE-	.	2G/	-n(us)	2d\	.	(4b-\	-n(us)
4AA/	-(us)	4AA/	-(us)	.	.	.	.	.	4cc\)	.
*	*Xij	*	*Xij	*	*	*	*	*	*	*
=34	=34	=34	=34	=34	=34	=34	=34	=34	=34	=34
2.BB-/	Sab-	2.BB-/	Sab-	.	2F/	DE-	1d	.	1dd	De-
.	.	.	.	.	2D/	-(us)	.	.	.	.
8AA/L	.	8AA/L	.	.	.	.	.	.	.	.
8GG/J	.	8GG/J	.	.	.	.	.	.	.	.
4FF/	.	4FF/	.	.	[2d\	Sab-	2f\	.	2a\	-us
*	*	*custos:AA	*	*	*	*	*	*	*	*
4GG/	.	4GG/	.	.	.	.	.	.	.	.
!	!	!LO:LB:g=original	!	!	!	!	!	!	!	!
=35	=35	=35	=35	=35	=35-	=35	=35-	=35	=35-	=35
*M4/4	*	*M4/4	*	*	*M4/4	*	*M4/4	*	*M4/4	*
*met(c)	*	*met(c)	*	*	*met(c)	*	*met(c)	*	*met(c)	*
2.AA/	.	2.AA/	.	.	4d\]	.	2.e\	.	(8a\L	Sab-
.	.	.	.	.	.	.	.	.	8bn\	.
.	.	.	.	.	8c#X\L	.	.	.	8cc\	.
.	.	.	.	.	8Bn\J	.	.	.	8dd\J)	.
.	.	.	.	.	4.c#X\	.	.	.	4.ee\	.
4AA/	-ba-	4AA/	-ba-	.	.	.	4e\	-ba-	.	.
.	.	.	.	.	8c#\	-ba-	.	.	8ee\	-ba-
=36	=36	=36	=36	=36	=36	=36	=36	=36	=36	=36
!	!	!	!	!	!LO:TX:t=P:problem=kreska taktowa pojedyncza	!	!LO:TX:t=P:problem=kreska taktowa pojedyncza	!	!	!
1D	-oth.	1D	-oth.	.	1d	-oth	1f#X	-oth.	1dd	-oth.
!LO:LB:g=original	!	!	!	!	!	!	!	!	!	!
=37||	=37||	=37||	=37||	=37||	=37||	=37||	=37||	=37||	=37||	=37||
4r	.	4r	.	.	4r	.	4r	.	4r	.
4BB-/	Ple-	4BB-X/	Ple-	.	4B-X\	Ple-	4fn\	Ple-	4dd\	Ple-
4BB-/	-ni	4BB-/	-ni	.	4B-\	-ni	4f\	-ni	4dd\	-ni
4BB-/	sunt	4BB-/	sunt	.	4B-\	sunt	4f\	sunt	4dd\	sunt
=38	=38	=38	=38	=38	=38	=38	=38	=38	=38	=38
2E-X\	cae-	2E-X\	cae-	.	2B-\	cae-	2g\	cae-	2ee-X\	cae-
4E-\	-li	4E-\	-li	.	4B-\	-li	4g\	-li	4ee-,<\	-li
4D\	et	4D\	et	.	[4B-\	et	4f\	et	4ff\	et
=39	=39	=39	=39	=39	=39	=39	=39	=39	=39	=39
1F	ter-	1F	ter-	.	4B-\]	.	1f	ter-	1cc	ter-
.	.	.	.	.	8A\L	.	.	.	.	.
.	.	.	.	.	8G\J	.	.	.	.	.
*	*	*	*	*	*custos:B-	*	*	*	*	*
.	.	.	.	.	2A/	ter-	.	.	.	.
!	!	!	!	!	!LO:LB:g=original	!	!	!	!	!
=40	=40	=40	=40	=40	=40	=40	=40	=40	=40	=40
2BB-,</	-ra	2BB-,</	-ra	.	1B-	-ra	1f	-ra	2dd,<\	-ra
(8BB-/L	glo-	(8BB-/L	glo-	.	.	.	.	.	[<2dd\	glo-
8C/	.	8C/	.	.	.	.	.	.	.	.
8D/	.	8D/	.	.	.	.	.	.	.	.
8E/J)	.	8E/J)	.	.	.	.	.	.	.	.
!	!	!	!	!	!	!	!LO:LB:g=original	!	!	!
=41	=41	=41	=41	=41	=41	=41	=41	=41	=41	=41
4F\	.	4F\	.	.	1r	.	2r	.	4dd\]	.
8F\	-ri-	8F\	-ri-	.	.	.	.	.	2cc\	.
8F\	-a	8F\	-a	.	.	.	.	.	.	.
2G\	tu-	2G\	tu-	.	.	.	(8G/L	glo-	.	.
.	.	.	.	.	.	.	8A/	.	.	.
.	.	.	.	.	.	.	8B-/	.	[<4b-\	.
.	.	.	.	.	.	.	8c/J)	.	.	.
=42	=42	=42	=42	=42	=42	=42	=42	=42	=42	=42
2D,<\	-â	2D\	-â	.	2rG	.	4d\	.	4b-\]	.
.	.	.	.	.	.	.	8d\	ri-	8a\	-ri-
.	.	.	.	.	.	.	8d\	-a	8a\	-a
2E-X\	glo-	2E-X\	glo-	.	8E-X/L	glo-	4B-/	tu-	[2g/	tu-
.	.	.	.	.	8F/	.	.	.	.	.
.	.	.	.	.	8G/	.	4B-/	-a	.	.
.	.	.	.	.	8A/J	.	.	.	.	.
=43	=43	=43	=43	=43	=43	=43	=43	=43	=43	=43
(8BB-/L	.	(8BB-/L	.	.	4B-\	.	4r	.	4g/]	.
8C/	.	8C/	.	.	.	.	.	.	.	.
8D/	.	8D/	.	.	8B-\	-ri-	4.B-/	glo-	4f/	.
8E-X/J)	.	8E-X/J)	.	.	8B-\	-a	.	.	.	.
4F\	.	4F\	.	.	8F/L	glo-	.	.	4f/	-a
.	.	.	.	.	8G/	.	8B-/	-ri-	.	.
8F\	-ri-	8F\	-ri-	.	8A/	.	4A/	-a	4r	.
8F\	-a	8F\	-a	.	8B-/J	.	.	.	.	.
!	!	!	!	!	!	!	!	!	!LO:LB:g=original	!
=44	=44	=44	=44	=44	=44	=44	=44	=44	=44	=44
*	*ij	*	*ij	*	*	*	*	*ij	*	*
(8C/L	glo-	(8C/L	glo-	.	2.c\	.	2.G/	glo-	2ee-X\	glo-
8D/	.	8D/	.	.	.	.	.	.	.	.
8E-X/	.	8E-X/	.	.	.	.	.	.	.	.
8F/J)	.	8F/J)	.	.	.	.	.	.	.	.
4G\	.	4G\	.	.	.	.	.	.	4ee-\	.
8G\	ri-	8G\	ri-	.	8B-\	-ri-	8G/	-ri-	[<4dd\	.
8G\	-a	8G\	-a	.	8B-\	-a	8G/	-a	.	.
*	*Xij	*	*Xij	*	*	*	*	*Xij	*	*
=45	=45	=45	=45	=45	=45	=45	=45	=45	=45	=45
*	*	*custos:G	*	*	*	*	*	*	*	*
1D	tu-	1D	tu-	.	4A/	tu-	4F#X/	tu-	4dd\]	.
.	.	.	.	.	4G/	.	2G/	.	8cc\	-ri-
.	.	.	.	.	.	.	.	.	8b-\	-a
.	.	.	.	.	2A/	.	.	.	2a\	tu-
.	.	.	.	.	.	.	4F#X/	.	.	.
!	!	!LO:LB:g=original	!	!	!	!	!	!	!	!
=46-	=46	=46	=46	=46	=46	=46	=46	=46	=46	=46
1GG	-a.	1G	-a.	.	1G	-â	1G	-â.	1b-	-â.
=47	=47	=47	=47	=47	=47	=47	=47	=47	=47	=47
2.G\	O-	2.G\	O-	.	1r	.	0r	.	4r	.
.	.	.	.	.	.	.	.	.	4d/	O-
.	.	.	.	.	.	.	.	.	4g/	-san-
4F\	.	4F\	.	.	.	.	.	.	4a/	-na
=48-	=48	=48	=48	=48	=48	=48	=48	=48	=48	=48
1G	-san-	1G	-san-	.	1B-	O-	.	.	4b-\	in
.	.	.	.	.	.	.	.	.	4g/	ex-
.	.	.	.	.	.	.	.	.	4dd\	-cel-
.	.	.	.	.	.	.	.	.	4ee,<\	-sis
=49	=49	=49	=49	=49	=49	=49	=49	=49	=49	=49
2D,<\	-na	2D\	-na	.	4A/	-san-	1r	.	4.ff\	in
.	.	.	.	.	4D/	-na	.	.	.	.
.	.	.	.	.	.	.	.	.	8ff\	ex-
4G\	in	4G\	in	.	4B-\	in	.	.	2een\	-cel-
4A\	ex-	4A\	ex-	.	4c\	ex-	.	.	.	.
=50	=50	=50	=50	=50	=50	=50	=50	=50	=50	=50
4G\	cel-	4G\	cel-	.	2.B-\	-cel-	4r	.	2.dd\	-ſis.
4GG,</	-ſis	4GG,</	-sis	.	.	.	4B-/	O-	.	.
*	*ij	*	*	*	*	*	*	*	*	*
4D\	in	4D\	in	.	.	.	4f\	-san-	.	.
4E-X\	ex-	4E-X\	ex-	.	4B-\	-ſis	4g\	-na	4r	.
=51	=51	=51	=51	=51	=51	=51	=51	=51	=51	=51
!	!	!	!	!	!LO:SIC:v:s=2.A-\	!	!	!	!	!
2.F\	-cel-	2.F\	-cel-	.	2.A\	in	2.a-X\	in	4r	.
.	.	.	.	.	.	.	.	.	4f/	O-
.	.	.	.	.	.	.	.	.	4cc\	-san-
8E-X\L	.	8E-X\L	.	.	4B-\	ex-	8g\L	ex-	4dd\	-na
8D\J	.	8D\J	.	.	.	.	8f\J	.	.	.
=52-	=52	=52	=52	=52	=52	=52	=52	=52	=52	=52
1C	.	1C	.	.	4c\	-cel-	2.e-X\	-cel-	2.ee-X\	in
.	.	.	.	.	4C/	.	.	.	.	.
.	.	.	.	.	4G/	.	.	.	.	.
.	.	.	.	.	4A/	.	4f\	.	4ee-\	ex-
=53	=53	=53	=53	=53	=53	=53	=53	=53	=53	=53
2GG,</	-ſis	2GG,</	-sis	.	2B-\	.	1g	.	[<1dd	-cel-
*	*Xij	*	*	*	*	*	*	*	*	*
4G\	O-	4G\	O-	.	2B-\	-sis	.	.	.	.
8F\	-san-	8F\	-san-	.	.	.	.	.	.	.
!LO:TX:a:t=P:problem=♮ above	!	!	!	!	!	!	!	!	!	!
8En\	-na	8En\	-na	.	.	.	.	.	.	.
!LO:LB:g=original	!	!	!	!	!	!	!	!	!	!
=54	=54	=54	=54	=54	=54	=54	=54	=54	=54	=54
!	!	!	!	!	!	!	!	!	!LO:N:xstem:cue	!
2.D/	in	2.D/	in	.	4r	.	4f,<\	-sis	4dd\]	.
.	.	.	.	.	4D/	O-	8a\	in	4dd\	.
.	.	.	.	.	.	.	8a\	ex-	.	.
.	.	.	.	.	4G/	-san-	2g\	-cel-	2een\	-sis
*	*	*	*	*	*custos:B-	*	*	*	*	*
4C#X/	ex-	4C#X/	ex-	.	4A/	-na	.	.	.	.
!	!	!	!	!	!LO:LB:g=original	!	!LO:PB:g=original	!	!	!
=55	=55	=55	=55	=55	=55	=55	=55	=55	=55	=55
4.D/	-cel-	4.D/	-cel-	.	4B-\	in	4f,<\	-sis	4r	.
.	.	.	.	.	2A/	ex-	8f\	in	2ff\	in
8C/	.	8C/	.	.	.	.	8e\	ex-	.	.
2BB-X/	.	2BB-X/	.	.	.	.	2d\	-cel-	.	.
.	.	.	.	.	4G/	.	.	.	(8een\L	ex-
.	.	.	.	.	.	.	.	.	8dd\J)	.
!	!	!	!	!	!	!	!	!	!LO:LB:g=original	!
=56	=56	=56	=56	=56	=56	=56	=56	=56	=56	=56
1AA	.	1AA	.	.	1A	-cel-	4en\	.	4cc#X\	-cel-
.	.	.	.	.	.	.	8f\L	.	2dd\	.
.	.	.	.	.	.	.	8g\J	.	.	.
.	.	.	.	.	.	.	8a\L	.	.	.
.	.	.	.	.	.	.	16g\L	.	.	.
.	.	.	.	.	.	.	16f\JJ	.	.	.
.	.	.	.	.	.	.	4e\	.	4cc#X\	.
=57-	=57	=57	=57	=57	=57	=57	=57	=57	=57	=57
!	!	!LO:TX:b:t=Vertat	!	!	!	!	!	!	!	!
1Dl;	-sis.	1D	-sis.	.	1A	-sis.	1f#X	-sis.	1dd	-sis.
!	!	!LO:PB:g=original	!	!	!	!	!	!	!	!
=58||	=58||	=58||	=58||	=58||	=58||	=58||	=58||	=58||	=58||	=58||
*M4/4	*	*M4/4	*	*	*M4/4	*	*M4/4	*	*M4/4	*
*met(c)	*	*met(c)	*	*	*met(c)	*	*met(c)	*	*met(c)	*
!	!	!LO:TX:a:t=à3.	!	!	!LO:TX:a:t=Benedictus Tacet	!	!LO:TX:a:t=à 3.	!	!LO:TX:a:t=à3.	!
2.G\	Be-	2.GG/	Be-	.	1ryy	.	1r	.	4.g/	Be-
.	.	.	.	.	.	.	.	.	8g/	-ne-
.	.	.	.	.	.	.	.	.	4b-\	-di-
4GG/	-ne-	4GG/	-ne-	.	.	.	.	.	8b-\	-ct(us)
.	.	.	.	.	.	.	.	.	8cc\	qui
=59	=59	=59	=59	=59	=59	=59	=59	=59	=59	=59
4BB-/	-di-	4BB-/	-di-	.	1ryy	.	4.d\	Be-	4.dd\	Ve-
8BB-/	-ctus	8BB-/	-ctus	.	.	.	.	.	.	.
8C/	qui	8C/	qui	.	.	.	8d\	-ne-	16cc\LL	.
.	.	.	.	.	.	.	.	.	16b-\JJ	.
[2D\	ve-	[2D/	Ve-	-	.	.	4fn\	-di-	4.a\	.
.	.	.	.	.	.	.	8f\	-ct(us)	.	.
.	.	.	.	.	.	.	8g\	qui	8g/	.
=60	=60	=60	=60	=60	=60	=60	=60	=60	=60	=60
!LO:N:xstem:cue	!	!LO:N:xstem:cue	!	!	!	!	!	!	!	!
4D/]	.	4D/]	.	.	1ryy	.	2a\	Ve-	4f/	.
8C/L	.	8C/L	.	6	.	.	.	.	8e/L	.
8BB-/J	.	8BB-/J	.	.	.	.	.	.	8d/J	.
4C/	.	4C/	.	6	.	.	4a\	-nit	4e/	.
4BB-/	.	4BB-/	.	6	.	.	4g\	in	4d/	.
=61	=61	=61	=61	=61	=61	=61	=61	=61	=61	=61
1AA	.	1AA	.	7	1ryy	.	4g\	No-	2c/	-nit
.	.	.	.	6	.	.	8f\	-mi-	.	.
.	.	.	.	.	.	.	8e\	-ne	.	.
.	.	.	.	6	.	.	4f\	Do-	4c/	qui
.	.	.	.	.	.	.	(8c\	.	[<4cc\	ve-
.	.	.	.	.	.	.	8d\)	.	.	.
=62-	=62	=62	=62	=62	=62	=62	=62	=62	=62	=62
2GG,</	-nit	2GG/	-nit	6 -4	1ryy	.	4e-X\	.	4cc\]	.
.	.	.	.	.	.	.	(8d\L	.	8b-X\L	.
.	.	.	.	.	.	.	8c\J	.	8a\J	.
2GG/	in	2GG/	in	5 3	.	.	4d\	.	2b-\	.
.	.	.	.	6/ 4	.	.	4en\)	.	.	.
=63	=63	=63	=63	=63	=63	=63	=63	=63	=63	=63
2D\	N(o-	2D\	No-	.	1ryy	.	4f\	.	2a\	-nit
.	.	.	.	.	.	.	4e\	.	.	.
4D\	-mi)-	4D\	-mi-	.	.	.	4d\	.	2a\	in
4D\	-ne	4D\	-ne	.	.	.	4c\	.	.	.
=64	=64	=64	=64	=64	=64	=64	=64	=64	=64	=64
1E-X	Do-	1E-X	Do-	.	1ryy	.	4B-/	.	2g/	No-
.	.	.	.	.	.	.	4G/	.	.	.
!	!	!	!	!	!	!	!LO:LB:g=original	!	!	!
.	.	.	.	.	.	.	[<2g\	.	4g/	-mi-
.	.	.	.	.	.	.	.	.	4g/	-ne
=65	=65	=65	=65	=65	=65	=65	=65	=65	=65	=65
1D	.	1D	.	6 4	1ryy	.	2g\]	.	2b-\	Do-
.	.	.	.	5 3	.	.	4f\	.	1a\	.
.	.	.	.	.	.	.	4en\	.	.	.
=66	=66	=66	=66	=66	=66	=66	=66	=66	=66-	=66
1B-X	.	1B-	.	7	1ryy	.	4d\	.	.	.
.	.	.	.	.	.	.	4c\	.	.	.
!	!	!	!	!	!	!	!LO:TX:a:t=P:problem=♮ above	!	!	!
.	.	.	.	6	.	.	[<2d\	.	2g\	.
!	!	!	!	!	!	!	!	!	!LO:LB:g=original	!
=67-	=67	=67	=67	=67	=67	=67	=67	=67	=67	=67
2.A\	.	2.A\	.	6 4	1ryy	.	2.d\]	.	2f/	.
.	.	.	.	.	.	.	.	.	4.e/	.
4A\	-mi-	4A\	-mi-	5 #3	.	.	4c#X\	-mi-	.	.
.	.	.	.	.	.	.	.	.	8e/	-mi-
=68	=68	=68	=68	=68	=68	=68	=68	=68	=68	=68
2D/	-ni	2D,</	-ni	#	1ryy	.	1d	-ni	1f#X	-ni
2D/	in	2D/	in	.	.	.	.	.	.	.
=69	=69	=69	=69	=69	=69	=69	=69	=69	=69	=69
2G\	N(o-	2G\	No-	.	1ryy	.	2rA	.	0r	.
4G\	-mi)-	4G\	-mi-	.	.	.	2G/	in	.	.
4G\	-ne	4G\	-ne	.	.	.	.	.	.	.
=70	=70	=70	=70	=70	=70	=70	=70	=70	=70	=70
2.B-\	Do-	2.B-\	Do-	.	1ryy	.	2d\	No-	.	.
.	.	.	.	.	.	.	4d\	-mi-	.	.
4A\	.	4A\	.	.	.	.	4d\	-ne	.	.
=71	=71	=71	=71	=71	=71	=71	=71	=71	=71	=71
2G\	.	2G\	.	.	1ryy	.	2e-X\	Do-	2r	.
2F\	.	2F\	.	.	.	.	[<2d\	.	2d/	in
=72-	=72	=72	=72	=72	=72	=72	=72	=72	=72	=72
1E-X	.	1E-X	.	.	1ryy	.	2d\]	.	2g\	No-
.	.	.	.	.	.	.	2c\	.	4g\	-mi-
.	.	.	.	.	.	.	.	.	4g\	-ne
!LO:LB:g=original	!	!LO:LB:g=original	!	!	!	!	!	!	!	!
=73-	=73	=73	=73	=73	=73	=73	=73	=73	=73	=73
!LO:TX:t=3	!	!	!	!	!	!	!	!	!	!
!LO:TX:t=P:problem=błędna wartość rytmiczna w źródle	!	!	!	!	!	!	!	!	!	!
!LO:N:vis=0.	!	!	!	!	!	!	!	!	!	!
[y0D	.	[<1D	.	.	1ryy	.	2.d\	.	2b-\	Do-
.	.	.	.	.	.	.	.	.	[<2a\	.
.	.	.	.	.	.	.	4c\	.	.	.
=74-	=74	=74	=74	=74	=74	=74	=74	=74	=74	=74
!	!	!	!	!	!	!	!	!	!LO:N:xstem:cue	!
.	.	1D]	.	.	1ryy	.	1B-	.	4a\]	.
.	.	.	.	.	.	.	.	.	4g/	.
.	.	.	.	.	.	.	.	.	[2g/	.
=75-	=75	=75	=75	=75	=75	=75	=75	=75	=75	=75
2.D]yy	.	2.D/	.	.	1ryy	.	2.A/	.	2g/]	.
.	.	.	.	.	.	.	.	.	4.f#X/	.
4D/	-mi-	4D/	-mi-	.	.	.	4A/	mi-	.	.
.	.	.	.	.	.	.	.	.	8f#/	-mi-
=76-	=76	=76	=76	=76	=76	=76	=76-	=76	=76	=76
!	!	!	!	!	!LO:TX:b:t=Osanna Vertat	!	!	!	!	!
1GG	-ni.	1GG	-ni.	.	1ryy	.	1G	-ni.	1g	-ni.
!LO:LB:g=original	!	!	!	!	!LO:PB:g=original	!	!	!	!	!
=77||	=77||	=77||	=77||	=77||	=77||	=77||	=77||	=77||	=77||	=77||
*M3/2	*	*M3/2	*	*	*M3/2	*	*M3/2	*	*M3/2	*
!	!	!	!	!	!LO:TX:a:t=Tutti.	!	!	!	!	!
2G\	O-	2G\	O-	.	2B-\	O-	2d\	O-	2g/	O-
2G\	-san-	2G\	-san-	.	2B-\	-san-	2d\	-san-	2dd\	-san-
2En\	-na	2En\	-na	.	2G/	-na	2c\	-na	2een\	-na
=78	=78	=78	=78	=78	=78	=78	=78	=78	=78	=78
4D\	in	(4D\	in	.	2A\	in	2.d\	in	1ff	in
4E\	.	4E\	.	.	.	.	.	.	.	.
4F\	.	4F\	.	.	2d\	.	.	.	.	.
4G\	.	4G\)	.	.	.	.	4a\	ex-	.	.
2A\	ex-	2A\	ex-	.	2c\	ex-	2a\	-cel-	2een\	ex-
=79	=79	=79	=79	=79	=79	=79	=79	=79	=79	=79
4B-\	-cel-	(4B-\	-cel-	.	4d\	-cel-	2f\	.	2.dd\	-cel-
4A\	.	4A\	.	.	4c\	.	.	.	.	.
4G\	.	4G\	.	.	4B-\	.	2.g\	.	.	.
4F\	.	4F\)	.	.	4A\	.	.	.	4dd\	-ſis
2En\	.	2En\	.	.	2G/	.	.	.	2een\	in
*	*	*	*	*	*	*	*custos:d	*	*	*
.	.	.	.	.	.	.	4c#X\	.	.	.
!	!	!	!	!	!	!	!LO:LB:g=original	!	!	!
=80	=80	=80	=80	=80	=80	=80	=80	=80	=80	=80
2D\	.	2D\	.	.	2A\	.	1d	.	2ff\	ex-
2G\	.	2G\	.	.	2B-\	.	.	.	1een	-cel-
2A\	.	2A\	.	.	2A\	.	2c#X\	.	.	.
=81	=81	=81	=81	=81	=81	=81	=81	=81	=81	=81
*	*	*	*	*	*	*	*	*	*custos:ff	*
1.D	-sis.	1.D,<	-sis.	.	1.A	-sis.	1.d	-sis.	1.dd	-ſis.
!	!	!	!	!	!	!	!	!	!LO:LB:g=original	!
=82	=82	=82	=82	=82	=82	=82	=82	=82	=82	=82
2D/	O-	2D/	O-	.	2A\	O-	2a\	O-	2ff\	O-
2AA/	-san-	2AA/	-san-	.	2A\	-san-	2a\	-san-	2ee-X\	-san-
2BB-/	-na	2BB-/	-na	.	2D/	-na	2g\	-na	2dd\	-na
=83	=83	=83	=83	=83	=83	=83	=83	=83	=83	=83
1F	in	1F	in	.	1A	in	1f	in	1cc	in
2BB-/	ex-	2BB-/	ex-	.	2d\	ex-	2f\	ex-	2b-\	ex-
=84	=84	=84	=84	=84	=84	=84	=84	=84	=84	=84
2.F\	-cel-	2.F\	-cel-	.	1c	-cel-	1f	-cel-	(4cc\	-cel-
.	.	.	.	.	.	.	.	.	4b-\	.
.	.	.	.	.	.	.	.	.	4cc\	.
8E-X\L	.	8E-X\L	.	.	.	.	.	.	4dd\)	.
8D\J	.	8D\J	.	.	.	.	.	.	.	.
2C/	.	2C/	.	.	2c\	-ſis	2e-X\	.	2ee-X\	.
=85	=85	=85	=85	=85	=85	=85	=85	=85	=85	=85
2D\	.	2D\	.	.	4F/	in	2f\	.	2dd\	.
.	.	.	.	.	4F/	ex-	.	.	.	.
2E-X\	.	2E-X\	.	.	1c	-cel-	2g\	.	1cc	.
2F\	.	2F\	.	.	.	.	2f\	.	.	.
=86	=86	=86-	=86	=86-	=86	=86	=86	=86	=86	=86
1.BB-	-sis.	1.BB-	-sis.	.	1.d	-sis.	1.f,<	-sis.	1.b-,<	-sis
=87	=87	=87	=87	=87	=87	=87	=87	=87	=87	=87
1F	in	1F	in	.	1c	O-	1.f	in	2cc\	in
.	.	.	.	.	.	.	.	.	2a\	ex-
2D\	ex-	2D\	ex-	.	1B-	-san-	.	.	4dd\	-cel-
.	.	.	.	.	.	.	.	.	4cc\	.
=88	=88	=88	=88	=88	=88-	=88	=88	=88	=88	=88
2.G\	-cel-	2.G\	-cel-	.	.	.	2d\	ex-	2.b-\	.
.	.	.	.	.	1G	-na	4g\	.	.	.
4F\	.	4F\	.	.	.	.	4f\	.	8cc\L	.
.	.	.	.	.	.	.	.	.	8dd\J	.
4E-X\	.	4E-X\	.	.	.	.	4e-X\	.	[<2ee-X\	.
4D\	.	4D\	.	.	.	.	4d\	.	.	.
=89	=89	=89	=89	=89	=89	=89	=89	=89	=89	=89
!	!	!	!	!	!	!	!	!	!LO:N:xstem:cue	!
4C/	.	4C/	.	.	4G/	in	1c	cel-	4ee-\]	.
4BB-/	.	4BB-/	.	.	8A/L	.	.	.	4dd\	.
.	.	.	.	.	8B-/J	.	.	.	.	.
4AA/	.	4AA/	.	.	4c\	.	.	.	1cc	.
4GG/	.	4GG/	.	.	4B-\	.	.	.	.	.
2FF#X/	.	2FF#X/	.	.	2A\	ex-	2d\	.	.	.
=90	=90	=90-	=90	=90-	=90	=90	=90	=90	=90	=90
2GG/	.	2GG/	.	.	1G	-cel-	1.d	.	2b-\	.
1D	.	1D	.	.	.	.	.	.	1a	.
.	.	.	.	.	2F#X/	.	.	.	.	.
=91-	=91	=91	=91	=91	=91	=91	=91	=91	=91	=91
1.GG;<	-sis.	1.GGl;	-sis.	.	1.Gl	-sis.	1.dl;	-sis.	1.gl;	-sis.
==	==	==	==	==	==	==	==	==	==	==
*-	*-	*-	*-	*-	*-	*-	*-	*-	*-	*-
!!!system-decoration: [(s1,s2,s3,s4)]s5
!!!RDF**kern: > = above
!!!RDF**kern: < = below
!!!RDF**kern: l = terminal long
!!!ENC: Andrzej Kubiczek
!!!END: 2021-07-21
!!!ENC: Krzysztof Stępień
!!!END: 2021-07-02
